X:1
T:Rejoice in the Lord, O ye righteous
T:Rejoice in the Lord, O ye righteous (John Wainwright)
C:John Wainwright
Z:p57, A Collection of
Z:Psalm Tunes, Anthems,
Z:Hymns and Chants,
Z:London: [1766]
%%score [ 1 2 3 4 ]
L:1/8
M:2/2
K:A
V:1 treble nm="SOPRANO" snm="S."
V:2 treble nm="ALTO" snm="A."
V:3 treble-8 transpose=-12 nm="TENOR" snm="T."
V:4 bass nm="BASS" snm="B."
V:1
 z2 | z8 | z8 | z8 | z8 | z8 | z8 | z4 z2 (ed) | c4 c2 G2 | A6 E2 | F4 G2 A2 | G6 B2 | %12
w: |||||||Re- *|joice in the|Lord, re-|joice in the|Lord, re-|
 (cBcd) c2 B2 | (AB)(cd) e4- | e4 (e2 ^d2) | e2 e2 z2 e2 | e4 e2 d2 | c6 c2 | (f3 e) (dc)(BA) | %19
w: joice _ _ _ in the|Lord, _ _ _ O|_ ye _|right- eous. Re-|joice in the|Lord, re-|joice _ in _ the _|
 G6 E2 | A2 AE F3 F | B2 BA G G2 G | c2 cG A3 A | (Bcdc) (dc)(BA) | G4 (A3 B | c3 B A2) G2 | %26
w: Lord, re-|joice in the Lord, the|Lord, O ye right- eous, re-|joice in the Lord, re-|joice _ _ _ in _ the _|Lord, O _|_ _ _ ye|
 A2 A6 | c2 cB A2 G2 | A6 E2 | F2 (FG) (A4- | A2 G2) F2 ^E2 | F2 F2 z2 G2 | (A2 B2) c4- | c4 B4 | %34
w: right- eous:|For it be- com- eth|well the|just, the _ just|_ _ to be|thank- ful, the|just _ to|_ be|
 c2 c2 z4 | e2 ed c2 B2 | c6 G2 | A6 BA | G2 G2 z2 B2 | (cBcd cBAG | F2) F2 z2 A2 | (dcde dcBA | %42
w: thank- ful,|for it be- com- eth|well the|just to be|thank- ful, be|thank- * * * * * * *|* ful, be|thank- * * * * * * *|
 G2) G2 z2 B2 | c3 B c2 G2 | ABcd e2 d2 | c2 B2 A3 G | A4 A4 ||"^CHORUS" c2 c2 G2 G2 | A4 B4 | %49
w: * ful, for|it be- com- eth|well _ _ _ _ the|just _ to be|thank- ful.|Sing un- to the|Lord a|
 (c4 ^d4) | e6 e2 | c2 B2 A2 G2 | A6 A2 | d2 c2 B2 A2 | G4 (A2 B2) | (c4 B3 A) | G6 e2 | %57
w: new _|song, sing|prai- ses lus- ti-|ly, sing|prai- ses lus- ti-|ly un- *|to _ _|him with|
 (d2 cB) (c2 B2) | A2 A6 ||[M:3/2]"^Verse 2 Voices" c3 d | e8 e3 d | (c4 d2 c2) (B2 A2) | G8 G3 A | %63
w: a _ _ good _|cou- rage:|For the|word of the|Lord _ _ is _|true, for the|
 B8 B3 A | (G3 B A3 G) F4 | E8 G4 | G3 A B4 (B2 c2) | d4 d4 G4 | A3 B c4 (c2 d2) | e4 e4 d4 | %70
w: word of the|Lord _ _ _ is|true, and|all his works are _|faith- ful, and|all his works are _|faith- ful, are|
 c4 c4 ^d4 | (e4 ^d4) (c2 ^B2) | c4 c4 c3 d | (e3 d c3 B) A3 G | A8 (B2 A2) | G6 G2 G2 G2 | %76
w: faith- ful, his|works _ are _|faith- ful. For the|word _ _ _ of the|Lord is _|true, and all his|
 A8 (A2 E2) | F4 F4 B2 ^A2 | B8 (B2 F2) | G4 G4 c2 B2 | c8 (c2 G2) | A4 A2 c2 d2 c2 | (B4 A4) G4 | %83
w: works are _|faith- ful, all his|works are _|faith- ful, all his|works are _|faith- ful, and all his|works _ are|
 A4 A4 z4 ||[K:Amin][M:4/4] z8 | z8 | z8 | z8 | z8 | z8 | z8 | z8 | z8 | z8 | z8 | z8 | z8 | z8 || %98
w: faith- ful.|||||||||||||||
[K:A][M:4/4]"^CHORUS" AB | c2 BA A2 dc | B2 A2 G2 Bc | d2 cB c2 AB | c2 ^d2 e4 | (G>A) Bc d2 d2 | %104
w: By the|word of the Lord were the|hea- vens made, by the|word of the Lord were the|hea- vens made:|and _ all the host of|
 c2 cB A2 BB | B4 e2 ec | d2 (dc) B2 cB | A2 AG A4 |"^Slow" A4 A4 | B4 B4 | A4 B4 | c8 | c4 c4 | %113
w: them by the breath of his|mouth, and all the|host of _ them by the|breath of his mouth.|For he|spake and|it was|done,|for he|
 B4 B4 | A4 A4 | G8 | c4 c4 | A4 A4 | (c4 B4) | A4 c4 | c8 |[M:2/2] z8 | z8 | z8 | z8 | %125
w: spake and|it was|done:|he com-|mand- ed|and _|it stood|fast.|||||
 z4"^Chorus" c2 (cd) | e2 e2 e2 ^d2 | e2 e2 (ABA)G | A2 A2 (dcB)A | G2 G2 A2 c2 | B2 d2 c3 B | %131
w: Hal- le- *|lu- jah, hal- le-|lu- jah, hal- * * le-|lu- jah, hal- * * le-|lu- jah, hal- le-|lu- jah, hal- le-|
 A4 !fermata!A4 ||"^Slow" d4 c4 | B4 A4 |] %134
w: lu- jah.|A- men,|A- men.|
V:2
 z2 | z8 | z8 | z8 | z8 | z8 | z8 | z8 | z8 | z8 | z8 | z8 | z8 | z8 | z8 | z8 | z8 | z8 | z8 | %19
w: |||||||||||||||||||
 z8 | z8 | z8 | z8 | z8 | z8 | z8 | z8 | z8 | z8 | z8 | z8 | z8 | z8 | z8 | z8 | z8 | z8 | z8 | %38
w: |||||||||||||||||||
 z8 | z8 | z8 | z8 | z8 | z8 | z8 | z8 | z8 || E2 E2 E2 E2 | C4 E4 | (A4 F4) | G6 C2 | %51
w: |||||||||Sing un- to the|Lord a|new _|song, sing|
 E2 D2 C2 B,2 | A,6 C2 | F2 E2 D2 D2 | E6 D2 | (E4 F4) | E4 (E2 A2) | F4 (E3 D) | C2 C6 || %59
w: prai- ses lus- ti-|ly, sing|prai- ses lus- ti-|ly un-|to _|him with _|a good _|cou- rage:|
[M:3/2] z4 | z12 | z12 | z12 | z12 | z12 | z12 | z12 | z12 | z12 | z12 | z12 | z12 | z12 | z12 | %74
w: |||||||||||||||
 z12 | z12 | z12 | z12 | z12 | z12 | z12 | z12 | z12 | z12 || %84
w: ||||||||||
[K:Amin][M:4/4]"^[Alto] Solo" z2 C2 E2 ^G2 | A2 E2 (FE) D2 | E2 E2 z2 E2 | G3 F E2 (DC) | %88
w: He lov- eth|right- eous- ness _ and|judg- ment, he|lov- eth right- eous- *|
 (E>D C)B, CC z E | (E2 F)E D2 z B, | C2 DC (B,/A,/)B, z E | ^F2 (FE) ^D2 DD | %92
w: ness _ _ and judg- ment: the|earth _ is full, is|full of the good- * ness, the|earth is _ full of the|
 EE z (E/^F/) G>F E^D | E2 z E (E>F E/D/)(C/B,/) | A,3 A, (D>C B,)A, | ^G,2 G,G, A,A, z B, | %96
w: good- ness, the _ good- ness of the|Lord. The earth _ _ _ is _|full, the earth _ _ is|full of the good- ness, the|
 CC z (E/D/) C>B, A,^G, | A,8 ||[K:A][M:4/4] ED | C2 DE F2 AG | F2 E2 E2 EE | G2 EE E2 EE | %102
w: good- ness, the _ good- ness of the|Lord.|By the|word of the Lord were the|hea- vens made, by the|word of the Lord were the|
 A2 F2 E4 | E2 FE F2 G2 | A2 EE F2 FF | G4 A2 EE | F2 F2 G2 AF | E2 EE E4 | F4 F4 | G4 G4 | F6 F2 | %111
w: hea- vens made:|and all the host of|them by the breath of his|mouth, and all the|host of them by the|breath of his mouth.|For he|spake and|it was|
 ^E8 | E4 E4 | E4 E4 | E4 ^D4 | E8 | G4 ^E4 | F4 F4 | F4 G4 | F4 (F2 ^E2) | F8 |[M:2/2] z8 | z8 | %123
w: done,|for he|spake and|it was|done:|he com-|mand- ed|and _|it stood _|fast.|||
 z8 | z8 | z4 E2 E2 | E2 E2 A2 F2 | G2 G2 E2 E2 | C2 C2 D2 F2 | E2 E2 A2 E2 | F2 F2 E3 D | %131
w: ||Hal- le-|lu- jah, hal- le-|lu- jah, hal- le-|lu- jah, hal- le-|lu- jah, hal- le-|lu- jah, hal- le-|
 C4 !fermata!C4 || F4 E4 | E4 E4 |] %134
w: lu- jah.|A- men,|A- men.|
V:3
 z2 | z8 | z8 | z8 | z8 | z8 | z8 | z8 | z8 | z8 | z8 | z8 | z8 | z8 | z8 | z8 | z8 | z8 | z8 | %19
w: |||||||||||||||||||
 z8 | z8 | z8 | z8 | z8 | z8 | z8 | z8 | z8 | z8 | z8 | z8 | z8 | z8 | z8 | z8 | z8 | z8 | z8 | %38
w: |||||||||||||||||||
 z8 | z8 | z8 | z8 | z8 | z8 | z8 | z8 | z8 || A2 A2 B2 B2 | c4 B4 | (A4 B4) | B4 z4 | z4 z2 B2 | %52
w: |||||||||Sing un- to the|Lord a|new _|song,|sing|
 d2 c2 B2 A2 | B6 F2 | c2 B2 A2 G2 | A4 F2 B2 | B4 B2 A2 | (A6 G2) | A2 A6 ||[M:3/2] z4 | z12 | %61
w: prai- ses lus- ti-|ly, sing|prai- ses lus- ti-|ly un- to|him with a|good _|cou- rage:|||
 z12 | z12 | z12 | z12 | z12 | z12 | z12 | z12 | z12 | z12 | z12 | z12 | z12 | z12 | z12 | z12 | %77
w: ||||||||||||||||
 z12 | z12 | z12 | z12 | z12 | z12 | z12 ||[K:Amin][M:4/4] z8 | z8 | z8 | z8 | z8 | z8 | z8 | z8 | %92
w: |||||||||||||||
 z8 | z8 | z8 | z8 | z8 | z8 ||[K:A][M:4/4] cd | e2 dc d2 fe | d2 c2 B2 GA | B2 AG A2 cB | %102
w: ||||||By the|word of the Lord were the|hea- vens made, by the|word of the Lord were the|
 A2 A2 G4 | (B>c) dA A2 B2 | E2 AB c2 ^dd | e4 e2 Ac | B3 A G2 ed | c2 BB c4 | c4 c4 | d4 d4 | %110
w: hea- vens made:|and _ all the host of|them by the breath of his|mouth, and all the|host of them by the|breath of his mouth.|For he|spake and|
 c4 d4 | G8 | A4 A4 | B4 B4 | c4 A4 | B8 | ^E4 G4 | F4 F4 | (c4 d4) | (c2 B2) (A2 G2) | A8 | %121
w: it was|done,|for he|spake and|it was|done:|he com-|mand- ed|and _|it _ stood _|fast.|
[M:2/2] z8 | z8 | z8 | z8 | z4 A2 A2 | B2 B2 c2 B2 | B2 B2 (cdc)B | A2 A2 (fed)c | B2 B2 e2 c2 | %130
w: ||||Hal- le-|lu- jah, hal- le-|lu- jah, hal- * * le-|lu- jah, hal- * * le-|lu- jah, hal- le-|
 d2 d2 A3 G | A4 !fermata!A4 || A4 A4 | G4 c4 |] %134
w: lu- jah, hal- le-|lu- jah.|A- men,|A- men.|
V:4
"^Verse 2 Voices" E,2 | A,4 A,3 E, | F,6"^6" C,2 | (D,C,D,E,) (F,E,)(D,C,) | B,,6 (E,D,) | %5
w: Re-|joice in the|Lord, re-|joice _ _ _ in _ the _|Lord, re- *|
"^6" C,4"^6" B,,2 A,,2 | (D,2"^6" C,D, B,,2"^6" C,D,) |"^4" E,6"^3" E,2 | A,,2 A,,2 z2 E,2 | %9
w: joice in the|Lord, _ _ _ _ _|O ye|right- eous. Re-|
 F,4 F,2"^6" C,2 | (D,2"^2" C,2)"^6" B,,2 A,,2 | E,6 E,2 | A,4 A,2"^6" G,2 | F,4 (E,F,"^6"G,A, | %14
w: joice in the|Lord, _ in the|Lord, re-|joice in the|Lord, O _ _ _|
"^64" B,4)"^54""^-3" B,,4 | E,2 E,2 z2 E,2 | (E,2 F,2)"^6" G,2"^7" E,2 | A,6 A,2 | %18
w: _ ye|right- eous. Re-|joice _ in the|Lord, re-|
 D,4"^6" F,2"^6" D,2 | E,6 z2 | z2 z A,, D,2 D,"^42"C, |"^#" B,,3 B,, E,2 E,"^42"D, | %22
w: joice in the|Lord,|re- joice in the|Lord, the Lord, O ye|
"^#" C, C,2 C, F,2 F,"^6"C, |"^6" D,4 B,,2 B,,2 | (E,2"^42" D,2)"^6" (C,3 D, |"^64" E,6)"^53" E,2 | %26
w: right- eous, re- joice in the|Lord, in the|Lord, _ O _|_ ye|
 A,,2 A,,6 | z8 | F,2 F,E, D,2"^6" C,2 | D,6"^6" (A,,B,,) |"^64#""^53" C,4"^64" C,2"^#" C,2 | %31
w: right- eous:||For it be- com- eth|well the _|just to be|
 F,,2 F,,2 z2"^#" C,2 |"^53""^64" F,4"^6" (E,4 |"^7" D,6)"^6" D,2 |"^#" C,2 C,2 z4 | z8 | %36
w: thank- ful, the|just to|_ be|thank- ful,||
 A,2 A,G, F,2"^6" E,2 | F,2"^6" C,2 D,2"^#" B,,B,, | E,2 E,2"^6" G,2 E,2 | A,2 A,,2 z2 A,,2 | %40
w: for it be- com- eth|well the just to be|thank- ful, to be|thank- ful, be|
 (D,C,D,E, D,2"^6" C,2 | B,,2) B,,2 z2 B,,2 | E,2 E,2 z2 E,2 | A,3"^6" G, A,2 E,2 | %44
w: thank- * * * * *|* ful, be|thank- ful, for|it be- com- eth|
 F,4"^6" (C,2 D,2) |"^64""^53" E,4"^64" E,2"^53" E,2 | A,,4 A,,4 || A,,2 A,,2 E,2"^7" E,2 | %48
w: well the _|just to be|thank- ful.|Sing un- to the|
 A,4"^6" G,4 |"^7" (F,4 B,,4) | E,4 z4 | z4 z2 E,2 |"^6" F,2"^6" E,2 D,2 C,2 | B,,6 B,,2 | %54
w: Lord a|new _|song,|sing|prai- ses lus- ti-|ly, sing|
"^6" E,2"^2" D,2 C,2"^6" B,,2 | A,,4 D,4 | E,4 E,2"^6" C,2 | D,4"^43" E,4 | A,,2 A,,6 || %59
w: prai- ses lus- ti-|ly un-|to him with|a good|cou- rage:|
[M:3/2] A,3 A, |"^6" G,8 E,3 E, | A,8"^´" F,4 | E,8 E,3 E, |"^6" ^D,8"^#" B,,3 B,, | %64
w: For the|word of the|Lord is|true, for the|word of the|
 (E,4 A,,4)"^#" B,,4 | E,8 z4 | z8 B,,4 | B,,3 C, D,4 E,4 | F,4 F,4 C,4 | %69
w: Lord _ is|true,|and|all his works are|faith- ful, and|
 C,3 D, E,4"^6" (F,2 G,2) | A,4 A,4"^´" F,4 |"^64""^GD" G,8"^64""^GD" G,,4 | %72
w: all his works are _|faith- ful, his|works are|
 C,4 C,4"^6" C,3"^6" B,, | A,,8"^64" E,3"^53" E, | (F,3 E, D,3 C,) B,,4 | E,6 E,2 E,2"^42" D,2 | %76
w: faith- ful. For the|word of the|Lord _ _ _ is|true, and all his|
"^6" C,8 A,,4 | D,4 D,4 z4 | %78
w: works are|faith- ful,|
"^Notes: Original clefs treble, alto, tenor, bass for chorus sections; treble and bass for duet sections: alto and bass forthe alto solo section. The first two notes of the treble part in bar 68, given in the present edition as A and B, areprinted in the source as G# and A. The C# and B on beat 2 of bar 57, given in the present edition as two crotchets,are printed in the source as a small crotchet grace note C# slurred to a full-sized minim A." z4 z4"^#" B,,4 | %79
w: are|
 E,4 E,4 z4 | z4 z4"^#" C,4 | F,4 F,2 A,2"^6" B,,2"^6" C,2 |"^6" D,4"^64""^53" E,8 | %83
w: faith- ful,|are|faith- ful, and all his|works are|
 A,,4 A,,4 z4 ||[K:Amin][M:4/4] A,6"^´" B,2 | C3 B,"^6" A,"^6"G,"^6" F,2 |"^#" E,4 C,4 | %87
w: faith- ful.||||
"^6" B,,2 G,,2 C,2"^6" F,2 |"^64" G,2"^5 3" G,,2 C,4 | C2 C,2 G,2"^6" ^G,2 | %90
w: |||
 A,2 A,,2"^#" E,2"^6" C,2 |"^´" A,,4"^#" B,,2 B,A, |"^6" G,2 E,2"^7" A,,2"^´""^64""^GD" B,,2 | %93
w: |||
 E,4 C,4 | F,>G, F,/E,/D,/C,/ B,,4 |"^#" E,3"^ü" D,"^6" C,A,,"^6"^G,,"^ü"E,, | %96
w: |||
 A,,2"^6" C,2"^64" E,2"^5 D" E,,2 | A,,8 ||[K:A][M:4/4] A,,"^4"A,, | %99
w: ||By the|
"^5" A,,2"^4" A,,"^3"A,, D,2 D,E, |"^6" (F,G,) A,2 E,2 E,"^4"E, | %101
w: word of the Lord were the|hea- * vens made, by the|
"^5" E,2"^4" E,"^3"E, A,,2 A,"^6"G, | F,2"^7" B,,2 E,4 | E,2 D,"^6"C,"^7" B,,2"^6" B,,2 | %104
w: word of the Lord were the|hea- vens made:|and all the host of|
 A,,2 A,"^6"G, F,2"^#" B,B,, | E,4"^6" C,2 C,A,, |"^6" D,2"^8""^7" B,,2 E,2 A,D, | %107
w: them by the breath of his|mouth, and all the|host of them by the|
"^6" E,2"^5" E,E, A,,4 | F,4 F,4 |"^7" ^E,4 E,4 | (F,2 E,2) D,4 |"^#" C,8 | A,4 A,4 |"^6" G,4 G,4 | %114
w: breath of his mouth.|For he|spake and|it _ was|done,|for he|spake and|
"^7" F,4"^´" F,4 | E,8 |"^#" C,4 C,4 | D,4 D,4 |"^6" (A,,4"^6" B,,4) |"^4" C,4"^64""^5D" C,4 | %120
w: it was|done:|he com-|mand- ed|and _|it stood|
 F,,8 |[M:2/2]"^Solo" A,,2 A,,2 E,2 E,2 | C,2 C,2 F,2 F,2 | E,2"^6" (F,G,) (A,>B,)"^6"(CB,) | %124
w: fast.|Hal- le- lu- jah,|hal- le- lu- jah,|hal- le- * lu- * jah, _|
 (B,>C,D,B,,"^4" E,2)"^3" E,2 | A,,2 A,,2 A,2 A,2 |"^6" G,2 G,2 F,2 B,,2 | E,2 E,2 C,2 C,2 | %128
w: hal- * * * * le-|lu- jah. Hal- le-|lu- jah, hal- le-|lu- jah, hal- le-|
 F,2 F,2 B,,2 B,,2 | E,2 E,2 C,2 A,,2 | D,2 B,,2"^4" E,3"^3" E, | A,4 !fermata!A,4 || D,4 A,,4 | %133
w: lu- jah, hal- le-|lu- jah, hal- le-|lu- jah, hal- le-|lu- jah.|A- men,|
 E,4 A,,4 |] %134
w: A- men.|

